X:143
T:Kilnamona
C: Traditional
R: Barndance
M: 4/4
L: 1/8
K: G
dGBd GB d2 | d2 c2 A3 B | c2 A2 e3 e | e2 d2 B4 |
dGBd GB d2 | d2 c2 A3 B | c2 A2 e2 d2 | G4 G4 :|
|: b3 b2 a gb | a3 a2 g ef | gage d2 (3(Bcd) | e2 a2 a2 ga |
b3 b2 a gb | a3 a2 g ef | gage d2 (3(Bcd) | e2 g2 g4 :|

%%newpage
%%scale .7
%%staffsep 40

